X:1
T:Title
%%score { ( 1 3 ) | ( 2 4 ) }
L:1/8
M:2/4
K:F
V:1 treble nm="Grand Piano"
V:3 treble 
V:2 bass 
V:4 bass 
V:1
 z2 z[Q:1/4=92] C | CA AA | GF FF | [DF][DG] [DF]D | C3 C | CF F[EG] | AA AA | [EG][DF] [EG][FA] | %8
[M:3/8] [EG]3 |[M:1/8] C |[M:2/4] CA AA | GF FF | [DF][DG] [DF]D | C3 C | CF F[EG] | AA AA | %16
 [EG][DF] [FA][EG] |[M:3/8] F3 |[M:1/8] c |[M:2/4] c4 | [CA]-[C-FA-] [CFA]F | [DF][DG] [DF]D | %22
 C3 C | CF F[EG] | AA AA | [B,EG][A,DF] [CFA][B,EG] |[M:3/8] [A,F]3 |] %27
V:2
 z2 z [F,A,] | [F,A,][F,C] [F,CF][F,CF] | [F,B,C][F,A,C] [F,A,C][F,A,C] | %3
 [B,,B,][B,,B,] [B,,B,][B,,F,B,] | [F,A,]3 [F,A,] | [F,A,][F,A,C] [F,A,C][C,C] | %6
 [F,CF][F,CF] [F,CF][F,CF] | [C,B,][D,A,] [C,C][C,C] |[M:3/8] [C,C]3 |[M:1/8] [F,A,] | %10
[M:2/4] [F,A,][F,C] [F,CF][F,CF] | [F,B,C][F,A,C] [F,A,C][F,A,C] | %12
 [B,,B,][B,,B,] [B,,B,][B,,F,B,] | [F,A,]3 [F,A,] | [F,A,][F,A,C] [F,A,C][C,C] | %15
 [F,CF][F,CF] [F,CF][F,CF] | [C,B,][D,A,] [C,C][C,B,] |[M:3/8] [F,A,]3 |[M:1/8] [F,A,F] | %19
[M:2/4] .[F,F]2 z2 | F,F, F,[F,A,C] | [B,,B,][B,,B,] [B,,B,][B,,F,B,] | [F,A,]3 [F,A,] | %23
 [F,A,][F,A,C] [F,A,C][C,C] | [F,CF][F,CF] [F,CF][F,CF] | C,D, C,C, |[M:3/8] F,3 |] %27
V:3
 x4 | x4 | x4 | x4 | x4 | x4 | x4 | x4 |[M:3/8] x3 |[M:1/8] x |[M:2/4] x4 | x4 | x4 | x4 | x4 | %15
 x4 | x4 |[M:3/8] x3 |[M:1/8] x |[M:2/4] z F F[CFA] | .F2 z2 | x4 | x4 | x4 | x4 | x4 | %26
[M:3/8] x3 |] %27
V:4
 x4 | x4 | x4 | x4 | x4 | x4 | x4 | x4 |[M:3/8] x3 |[M:1/8] x |[M:2/4] x4 | x4 | x4 | x4 | x4 | %15
 x4 | x4 |[M:3/8] x3 |[M:1/8] x |[M:2/4] A,-[F,A,-] [F,A,]F, | x4 | x4 | x4 | x4 | x4 | x4 | %26
[M:3/8] x3 |] %27

